!!!!SEGMENT: pl-kk--kk-i-1--060_anonim--responsory.krn
!!!cenid: 15xx:785
!!!COM: Anonim
!!!COM-rismID: pe30004985
!!!CDT:
!!!CNT:
!!!OTL: [Responsory]
!!!PDT:
!!!AGN:
!!!SMS-siglum: PL-Kk
!!!SMS-shelfmark: Kk.I.1
!!!SMS-shelfwork: 060 W
!!!SMS-variant:
!!!SMS-altvar:
!!!NIFC-rismSourceID: 300258014
!!!NIFC-islandoraID: pl-kk:1
!!!URL-pdf-islandora: https://repozytorium.nifc.pl/islandora/object/pl-kk%3A1/datastream/PDF/view
!!!URL-scan: https://polish.musicsources.pl/pl/lokalizacje/galeria/rekopisy/5736 @EN{Scan on Polish Music Sources Website} @PL{Skany w portalu Dziedzictwo Muzyki Polskiej w otwartym dostępie}
!!!ONB-nifc: UWAGA: Cantus (s. 184r-v, skan 0186-0187), Altus (s. 187r-v, skan 0380-0381), Tenor (s. 166r, skan 0556), Bassus (s. 182r-v, skan 0744-0745).
!!!AIN: 1 alto 1 bass 1 soprn 1 tenor
!!!key: F
**kern	**text	**kern	**text	**kern	**kern	**text	**kern	**text
*part5	*part5	*part4	*part4	*part3	*part2	*part2	*part1	*part1
*staff5	*staff5	*staff4	*staff4	*staff3	*staff2	*staff2	*staff1	*staff1
*stria6	*	*stria6	*	*stria6	*stria6	*	*stria6	*
*I"BASSVS	*	*I"TENOR	*	*I"[QVINTVS]	*I"ALTVS	*	*I"CANTVS	*
*I'B	*	*I'T	*	*I'[Q]	*I'A	*	*I'C	*
*Ibass	*	*Itenor	*	*	*Ialto	*	*Isoprn	*
*ICvox	*	*ICvox	*	*ICvox	*ICvox	*	*ICvox	*
*clefF5	*	*clefC4	*	*clefC3	*clefC3	*	*clefC4	*
*k[b-]	*	*k[b-]	*	*k[b-]	*k[b-]	*	*k[b-]	*
*F:	*	*F:	*	*F:	*F:	*	*F:	*
*M2/1	*	*M2/1	*	*M2/1	*M2/1	*	*M2/1	*
*met(C|)	*	*met(C|)	*	*met(C|)	*met(C|)	*	*met(C|)	*
*2\right	*	*2\right	*	*2\right	*2\right	*	*2\right	*
=1-	=1-	=1-	=1-	=1-	=1-	=1-	=1-	=1-
!	!	!	!	!	!	!	!LO:TX:t=P:problem=lewy górny róg karty oderwany - litera A niewidoczna	!
!LO:TX:a:t=Qvinq(ue) voc(um)	!	!LO:TX:a:t=Qvinq(ue) voc(um)	!	!LO:TX:t=P:problem=głos Quintus się nie zachował	!LO:TX:a:t=QVinq(ue) voc(um)	!	!LO:TX:a:t=Quinq(ue) vocum	!
1.FF	A-	0F	A-	0ryy	2.F/	A-	1.f	.
.	.	.	.	.	4G/	.	.	.
.	.	.	.	.	2A/	-MEN	.	.
2GG/	-MEN	.	.	.	2B-/	.	4e\	.
.	.	.	.	.	.	.	4d\	.
=2-	=2-	=2-	=2-	=2-	=2-	=2-	=2-	=2-
*	*	*lig	*	*	*	*	*	*
2AA/	.	0E	-MEN	0ryy	2c/	.	1.c	(A)MEN
2BB-/	.	.	.	.	4B-/	.	.	.
.	.	.	.	.	4A/	.	.	.
*	*	*	*	*	*lig	*	*	*
1C	.	.	.	.	1G	.	.	.
.	.	.	.	.	.	.	2B-/	.
=3-	=3-	=3-	=3-	=3-	=3-	=3-	=3-	=3-
1FF	.	000F/	.	0ryy	1.c	.	2A/	.
.	.	.	.	.	.	.	2G/	.
*	*	*	*	*	*Xlig	*	*lig	*
1.F	A-	.	.	.	.	.	1D 1F	.
.	.	.	.	.	2B-/	.	.	.
*	*	*Xlig	*	*	*	*	*	*
=4-	=4-	=4-	=4-	=4-	=4-	=4-	=4-	=4-
.	.	.	.	0ryy	2A/	.	1.f	.
2E\	.	.	.	.	2G/	.	.	.
2D/	-Men	.	.	.	2F/	.	.	.
*	*	*	*	*	*	*	*Xlig	*
!	!	!	!	!	!	!	!LO:TX:t=P:problem=2\right&colon; global	!
2C/	.	.	.	.	2A/	.	2e\	.
=5-	=5-	=5-	=5-	=5-	=5-	=5-	=5-	=5-
2BB-/	.	.	.	0ryy	2B-/	.	2d\	.
2AA/	.	.	.	.	2c/	.	2c\	.
1BB-	.	.	.	.	1d	.	1B-	.
=6-	=6-	=6-	=6-	=6-	=6-	=6-	=6-	=6-
*	*	*	*	*	*	*	*lig	*
!LO:N:vis=00	!	!	!	!	!LO:N:vis=00	!	!	!
0FF/	.	.	.	0ryy	0c\	.	1A	.
.	.	.	.	.	.	.	1f	.
*	*	*	*	*	*	*	*Xlig	*
=7-	=7-	=7-	=7-	=7-	=7-	=7-	=7-	=7-
1FF	Et	1F	Et	0ryy	1c	Et	1f	Et
*	*	*	*	*	*custos:B-	*	*	*
1FF	cum	1F	cum	.	1A	cum	1f	cum
!	!	!	!	!	!LO:LB:g=original	!	!	!
=8-	=8-	=8-	=8-	=8-	=8-	=8-	=8-	=8-
2BB-/	.	2F/	Spi-	0ryy	2B-/	Spi-	2d\	.
*	*	*	*	*	*	*	*custos:c	*
2BB-/	ſpi-	2F/	-ri-	.	2B-/	-ri-	2d\	Spi-
*custos:C	*	*	*	*	*	*	*	*
!	!	!	!	!	!	!	!LO:LB:g=original	!
1FF	-ri-	1F	-tu	.	1A	-tu	2c/	.
.	.	.	.	.	.	.	1c\	-ri-
!LO:LB:g=original	!	!	!	!	!	!	!	!
=9-	=9-	=9-	=9-	=9-	=9-	=9-	=9-	=9-
0C	-tu	0E	tu-	0ryy	1.c	.	.	.
.	.	.	.	.	.	.	4B-/	-tu
.	.	.	.	.	.	.	4A/	.
.	.	.	.	.	.	.	1G	.
.	.	.	.	.	2B-/	tu-	.	.
=10-	=10-	=10-	=10-	=10-	=10-	=10-	=10-	=10-
0FF	tu-	00.F	-o.	0ryy	2A/	-o	1F	.
.	.	.	.	.	2G/	.	.	.
.	.	.	.	.	2F/	.	2f\	.
.	.	.	.	.	2c/	.	2e\	tu-
=11-	=11-	=11-	=11-	=11-	=11-	=11-	=11-	=11-
0BB-	-o	.	.	0ryy	2B-/	.	2d\	-o
.	.	.	.	.	2c/	.	2c/	.
.	.	.	.	.	2d/	.	1B-	.
.	.	.	.	.	1B-/	.	.	.
=12-	=12-	=12-	=12-	=12-	=12-	=12-	=12-	=12-
!LO:N:vis=00	!	!	!	!	!	!	!LO:N:vis=00	!
0FF/	.	.	.	0ryy	.	.	0c\	.
.	.	.	.	.	4A/	.	.	.
.	.	.	.	.	4G/	.	.	.
!	!	!	!	!	!LO:N:vis=00	!	!	!
.	.	.	.	.	1A/	.	.	.
=13-	=13-	=13-	=13-	=13-	=13-	=13-	=13-	=13-
1F	GLo-	1F	Glo-	0ryy	1A	Glo-	1c	Glo-
2BB-/	-ri-	2F/	-ri-	.	2B-/	-ri-	2d\	-ri-
2BB-/	-a	2F/	-a	.	2B-/	-a	2d\	-a
=14-	=14-	=14-	=14-	=14-	=14-	=14-	=14-	=14-
1BB-	ti-	1F	ti-	0ryy	1B-	ti-	1d	ti-
1C	.	1E	-bi	.	1G	-bi	4c\	-bi
.	.	.	.	.	.	.	4d\	.
.	.	.	.	.	.	.	4e\	.
.	.	.	.	.	.	.	4c\	do-
=15-	=15-	=15-	=15-	=15-	=15-	=15-	=15-	=15-
2.BB-/	-bi	1D	Do-	0ryy	2B-/	Do	4d\	.
*	*	*	*	*	*	*	*custos:f	*
.	.	.	.	.	.	.	4e\	.
*	*	*	*	*	*custos:A	*	*	*
!	!	!	!	!	!	!	!LO:LB:g=original	!
.	.	.	.	.	2B-/	.	1f	-mi-
4C/	.	.	.	.	.	.	.	.
!	!	!	!	!	!LO:LB:g=original	!	!	!
2D/	Do-	1D	-mi-	.	1A	.	.	.
4C/	-mi-	.	.	.	.	.	4e\	.
4BB-/	.	.	.	.	.	.	4d\	.
=16-	=16-	=16-	=16-	=16-	=16-	=16-	=16-	=16-
1AA	-ne.	00.D	-ne	0ryy	2r	.	2c\	-ne
.	.	.	.	.	1A	Do-	1d	.
1AA	.	.	.	.	.	.	.	.
.	.	.	.	.	2A/	-mi-	2c\	.
=17-	=17-	=17-	=17-	=17-	=17-	=17-	=17-	=17-
2D/	.	.	.	0ryy	2A/	-ne	00d	.
1GG	.	.	.	.	1B-	.	.	.
2GG/	.	.	.	.	2B-/	.	.	.
=18-	=18-	=18-	=18-	=18-	=18-	=18-	=18-	=18-
!LO:N:vis=00	!	!	!	!	!LO:N:vis=00	!	!	!
0D\	.	.	.	0ryy	0A/	.	.	.
!	!	!LO:LB:g=original	!	!	!	!	!	!
=19-	=19-	=19-	=19-	=19-	=19-	=19-	=19-	=19-
!LO:TX:a:t=Pr(ae)fatio.	!	!LO:TX:a:t=Pr(ae)fatio(n)is	!	!	!LO:TX:a:t=Pr(ae)fati\nonis	!	!	!
*	*	*	*	*	*lig	*	*	*
!	!	!	!	!	!LO:TX:a:t=Praefati\nonis	!	!LO:TX:a:t=Pr(ae)fati\nonis	!
0FF	A-	00.F	A-	0ryy	1A	A-	2.F/	A-
.	.	.	.	.	.	.	4G/	.
.	.	.	.	.	1.c	.	2A/	-MEN
.	.	.	.	.	.	.	2B-/	.
*	*	*	*	*	*Xlig	*	*	*
=20-	=20-	=20-	=20-	=20-	=20-	=20-	=20-	=20-
1.F	.	.	.	0ryy	.	.	2c/	.
.	.	.	.	.	2B-/	.	4d\	.
.	.	.	.	.	.	.	4e\	.
.	.	.	.	.	2A/	.	1.f	.
2E\	-MEN	.	.	.	2G/	.	.	.
=21-	=21-	=21-	=21-	=21-	=21-	=21-	=21-	=21-
2D/	.	.	.	0ryy	2F/	-MEN	.	.
2C/	.	.	.	.	2A/	.	2e\	.
2BB-/	.	.	.	.	2B-/	.	2d\	.
*	*	*	*	*	*	*	*custos:B-	*
2AA/	.	.	.	.	2c/	.	2c\	.
!	!	!	!	!	!	!	!LO:LB:g=original	!
=22-	=22-	=22-	=22-	=22-	=22-	=22-	=22-	=22-
0BB-	.	00F	-MEN	0ryy	1d	.	2.B-/	.
.	.	.	.	.	.	.	4c\	.
.	.	.	.	.	1B-	.	2.d\	.
.	.	.	.	.	.	.	4e\	.
=23-	=23-	=23-	=23-	=23-	=23-	=23-	=23-	=23-
!LO:N:vis=00	!	!	!	!	!LO:N:vis=00	!	!LO:N:vis=00	!
0FF/	.	.	.	0ryy	0c\	.	0f\	.
!	!	!	!	!	!LO:LB:g=original	!	!	!
=24-	=24-	=24-	=24-	=24-	=24-	=24-	=24-	=24-
1F	Et	1F	Et	0ryy	1c	Et	1f	Et
2.C/	cum	1G	cum	.	1c	.	1e	cum
4BB-/	.	.	.	.	.	.	.	.
=25-	=25-	=25-	=25-	=25-	=25-	=25-	=25-	=25-
2AA/	.	1A	spi-	0ryy	0c	cum	2c\	.
2FF/	ſpi-	.	.	.	.	.	1f	Spi-
1C	-ri-	1G	-ri-	.	.	.	.	.
.	.	.	.	.	.	.	2e\	-ri-
=26-	=26-	=26-	=26-	=26-	=26-	=26-	=26-	=26-
*	*	*lig	*	*	*	*	*	*
2FF/	-tu	1F	-tu	0ryy	0c	Spi-	2f\	-tu
1F	.	.	.	.	.	.	2a\	.
.	.	1G	.	.	.	.	2.g\	.
*custos:D	*	*	*	*	*	*	*	*
2E\	.	.	.	.	.	.	.	.
.	.	.	.	.	.	.	4e\	.
*	*	*Xlig	*	*	*	*	*	*
!LO:LB:g=original	!	!	!	!	!	!	!	!
=27-	=27-	=27-	=27-	=27-	=27-	=27-	=27-	=27-
2D/	.	0A	tu-	0ryy	2d\	-ri-	2f\	.
2C/	.	.	.	.	2e\	-tu	1g	.
1D	.	.	.	.	2d\	tu-	.	.
.	.	.	.	.	2.d\	-o	2f\	tu-
=28-	=28-	=28-	=28-	=28-	=28-	=28-	=28-	=28-
1GG	.	00.G	-o	0ryy	.	.	2.g\	-o
.	.	.	.	.	4c/	.	.	.
!	!	!	!	!	!LO:TX:t=P:problem=krzyżyk w roli kasownika jest dwie nuty przed nutą, której dotyczy	!	!	!
!	!	!	!	!	!LO:TX:t=P:problem=# below	!	!	!
!	!	!	!	!	!LO:N:acc=#	!	!	!
.	.	.	.	.	4Bn/	.	.	.
.	.	.	.	.	4A/	.	4f\	.
1C	tu-	.	.	.	2G/	.	4e\	.
.	.	.	.	.	.	.	4d\	.
.	.	.	.	.	1c/	.	4c\	.
.	.	.	.	.	.	.	4d\	.
=29-	=29-	=29-	=29-	=29-	=29-	=29-	=29-	=29-
2C/	-o	.	.	0ryy	.	.	2e\	.
2GG/	.	.	.	.	2B-y/	.	1d	.
1C	.	.	.	.	2G/	.	.	.
.	.	.	.	.	1c/	.	2c/	.
=30-	=30-	=30-	=30-	=30-	=30-	=30-	=30-	=30-
!LO:N:vis=00	!	!	!	!	!	!	!LO:N:vis=00	!
0GG/	.	.	.	0ryy	.	.	0d\	.
.	.	.	.	.	4B-/	.	.	.
.	.	.	.	.	4A/	.	.	.
!	!	!	!	!	!LO:N:acc=#	!	!	!
!	!	!	!	!	!LO:TX:t=P:problem=# below	!	!	!
!	!	!	!	!	!LO:N:vis=00	!	!	!
.	.	.	.	.	1Bn	.	.	.
!	!	!	!	!	!/	!	!LO:PB:g=original	!
=31-	=31-	=31-	=31-	=31-	=31-	=31-	=31-	=31-
1FF	HA-	1F	HA-	0ryy	1A	HA-	2.f\	Ha-
.	.	.	.	.	.	.	4e\	.
*	*	*lig	*	*	*	*	*	*
2BB-/	-be-	1F	-be-	.	2B-y/	-be-	2d\	-be-
2AA/	.	.	.	.	2c/	.	2c\	-mus
=32-	=32-	=32-	=32-	=32-	=32-	=32-	=32-	=32-
1GG	-mus	1G	.	0ryy	2G/	-mus	2B-/	.
*	*	*	*	*	*custos:A	*	*	*
.	.	.	.	.	2B-/	.	2G/	.
*	*	*	*	*	*custos:A	*	*	*
!	!	!	!	!	!LO:PB:g=original	!	!	!
*	*	*Xlig	*	*	*	*	*	*
*	*	*lig	*	*	*clefC4	*	*	*
2FF/	.	1A	-mus	.	2A/	.	2c\	ad
2AA/	.	.	.	.	1F/	.	2c\	.
=33-	=33-	=33-	=33-	=33-	=33-	=33-	=33-	=33-
*	*	*custos:A	*	*	*	*	*	*
1GG	ad	1B-	.	0ryy	.	.	2d\	Do-
.	.	.	.	.	2E/	.	2e\	-mi-
*	*	*Xlig	*	*	*	*	*	*
!	!	!LO:LB:g=original	!	!	!	!	!	!
2FF/	.	1A	.	.	2F/	.	2c\	.
2.FF/	do-	.	.	.	4F/	Ad	1f\	-num
.	.	.	.	.	4G/	.	.	.
=34-	=34-	=34-	=34-	=34-	=34-	=34-	=34-	=34-
.	.	1A	AD	0ryy	4A/	.	.	.
4GG/	.	.	.	.	4B-/	.	.	.
4AA/	.	.	.	.	2.c\	do-	4e\	.
4BB-/	-mi-	.	.	.	.	.	4d\	.
*	*	*lig	*	*	*	*	*	*
1C	.	1G	Do-	.	.	.	1.c	.
.	.	.	.	.	4B-\	.	.	.
.	.	.	.	.	2G/	-mi-	.	.
=35-	=35-	=35-	=35-	=35-	=35-	=35-	=35-	=35-
1FF	-num	1A	.	0ryy	1c	.	.	.
*	*	*	*	*	*	*	*	*ij
.	.	.	.	.	.	.	2f\	ad
*	*	*Xlig	*	*	*	*	*	*
2.GG/	.	1B-	-mi-	.	2B-\	-num	1.d	Do-
.	.	.	.	.	1G/	.	.	.
*custos:BB-	*	*	*	*	*	*	*	*
4AA/	.	.	.	.	.	.	.	.
!LO:PB:g=original	!	!	!	!	!	!	!	!
=36-	=36-	=36-	=36-	=36-	=36-	=36-	=36-	=36-
2BB-/	.	1G	.	0ryy	.	.	.	.
1C	.	.	.	.	1c	.	4c\	.
.	.	.	.	.	.	.	4d\	.
*	*	*lig	*	*	*	*	*	*
.	.	0G	-nu(m)	.	.	.	2e\	.
2BB-/	.	.	.	.	2d\	.	1f\	.
=37-	=37-	=37-	=37-	=37-	=37-	=37-	=37-	=37-
1C	.	.	.	0ryy	1c	.	.	.
.	.	.	.	.	.	.	2e\	-mi-
!LO:N:vis=00	!	!LO:N:vis=00	!	!	!LO:N:vis=00	!	!LO:N:vis=00	!
1FF/	.	1F/	.	.	1A/	.	1f	-num
*	*	*Xlig	*	*	*	*	*	*Xij
!	!	!	!	!	!	!	!LO:LB:g=original	!
=38-	=38-	=38-	=38-	=38-	=38-	=38-	=38-	=38-
*lig	*	*lig	*	*	*	*	*	*
1F	Di-	1F	Di-	0ryy	0.c	Di-	1f	Di-
1C	.	1G	.	.	.	.	2.e\	.
.	.	.	.	.	.	.	4d\	.
*Xlig	*	*Xlig	*	*	*	*	*	*
=39-	=39-	=39-	=39-	=39-	=39-	=39-	=39-	=39-
*	*	*lig	*	*	*	*	*	*
1FF	-gnum	1A	-gnum	0ryy	.	.	2c\	-gnum
.	.	.	.	.	.	.	1f	.
1r	.	1B-	.	.	1B-	-gnum	.	.
.	.	.	.	.	.	.	2e\	.
*	*	*Xlig	*	*	*	*	*	*
=40-	=40-	=40-	=40-	=40-	=40-	=40-	=40-	=40-
1FF	e(t)	1A	.	0ryy	1c	.	2f\	et
.	.	.	.	.	.	.	2f\	.
2.AA/	.	1A	e(t)	.	2c/	et	1.e	Ju-
.	.	.	.	.	1c\	.	.	.
4BB-/	Ju-	.	.	.	.	.	.	.
=41-	=41-	=41-	=41-	=41-	=41-	=41-	=41-	=41-
*	*	*lig	*	*	*	*	*	*
2C/	.	1G	Ju-	0ryy	.	.	.	.
2GG/	-ſtum	.	.	.	2B-/	.	4d\	.
.	.	.	.	.	.	.	4c\	.
*	*	*	*	*	*custos:d	*	*	*
1D	.	1A	.	.	2A/	.	2d\	-ſtum
!	!	!	!	!	!LO:LB:g=original	!	!	!
.	.	.	.	.	1.d\	Juſ-	1f\	.
*	*	*Xlig	*	*	*	*	*	*
=42-	=42-	=42-	=42-	=42-	=42-	=42-	=42-	=42-
1BB-	.	1B-	-ſtum	0ryy	.	.	.	.
.	.	.	.	.	.	.	2d\	eſt.
2C/	eſt	1G	eſt	.	2c/	-tum	2e\	.
2GG/	.	.	.	.	2.B-/	.	2.g\	.
=43-	=43-	=43-	=43-	=43-	=43-	=43-	=43-	=43-
*lig	*	*	*	*	*	*	*	*
1BB-	.	0G	.	0ryy	.	.	.	.
.	.	.	.	.	4c\	.	4f\	.
.	.	.	.	.	2d\	eſt	1f	.
1C	.	.	.	.	1c	.	.	.
.	.	.	.	.	.	.	2e\	.
*Xlig	*	*	*	*	*	*	*	*
=44-	=44-	=44-	=44-	=44-	=44-	=44-	=44-	=44-
1FF	.	00.F	.	0ryy	1A	.	1f	.
2r	.	.	.	.	2r	.	2r	.
*	*	*	*	*	*	*	*	*ij
2FF/	.	.	.	.	2A/	.	2f\	di-
=45-	=45-	=45-	=45-	=45-	=45-	=45-	=45-	=45-
1BB-	.	.	.	0ryy	1B-	.	2d\	-gnum
.	.	.	.	.	.	.	2B-/	et
1BB-	.	.	.	.	1B-	.	4d\	Ju-
.	.	.	.	.	.	.	4c\	.
.	.	.	.	.	.	.	4d\	-ſtum
.	.	.	.	.	.	.	4e\	.
=46-	=46-	=46-	=46-	=46-	=46-	=46-	=46-	=46-
!LO:N:vis=00	!	!	!	!	!LO:N:vis=00	!	!LO:N:vis=00	!
0FF/	.	.	.	0ryy	0A	.	0f	eſt.
*	*	*	*	*	*	*	*	*Xij
!LO:LB:g=original	!	!	!	!	!	!	!LO:LB:g=original	!
=47-	=47-	=47-	=47-	=47-	=47-	=47-	=47-	=47-
1FF	Sed	1F	Sed	0ryy	1A	Sed	1c	SEd
1BB-	.	1F	li-	.	1B-	li-	1.d	.
=48-	=48-	=48-	=48-	=48-	=48-	=48-	=48-	=48-
1GG	Li-	1G	-be-	0ryy	1B-	-be-	.	.
.	.	.	.	.	.	.	2e\	.
*	*	*custos:F	*	*	*	*	*	*
1FF	-be-	1A	-ra	.	2A/	-ra	2c/	Li-
.	.	.	.	.	2c\	.	1f\	-be-
!	!	!LO:LB:g=original	!	!	!	!	!	!
=49-	=49-	=49-	=49-	=49-	=49-	=49-	=49-	=49-
1BB-	-ra	1F	nos	0ryy	2d\	.	.	.
.	.	.	.	.	2.B-/	nos	1d	-ra
1GG	.	1G	a	.	.	.	.	.
.	.	.	.	.	4c\	.	.	.
.	.	.	.	.	4d\	.	2.g\	.
.	.	.	.	.	4B-/	.	.	.
=50-	=50-	=50-	=50-	=50-	=50-	=50-	=50-	=50-
0C	nos	0G	ma-	0ryy	2c/	.	.	.
.	.	.	.	.	.	.	4f\	.
*	*	*	*	*	*custos:c	*	*	*
.	.	.	.	.	2G/	.	4e\	nos
.	.	.	.	.	.	.	4d\	.
!	!	!	!	!	!LO:LB:g=original	!	!	!
.	.	.	.	.	1.c	A	4e\	.
.	.	.	.	.	.	.	2f\	.
.	.	.	.	.	.	.	4e\	a
=51-	=51-	=51-	=51-	=51-	=51-	=51-	=51-	=51-
1FF	a	00.F	-lo	0ryy	.	.	2f\	.
.	.	.	.	.	2B-/	.	2F/	.
1FF	ma-	.	.	.	2A/	.	1.f	Ma-
.	.	.	.	.	2G/	.	.	.
=52-	=52-	=52-	=52-	=52-	=52-	=52-	=52-	=52-
1.BB-	.	.	.	0ryy	2F/	Ma-	.	.
.	.	.	.	.	2F/	-lo	2e\	-lo
.	.	.	.	.	2.f\	.	2d\	.
2AA/	-lo.	.	.	.	.	.	2c/	.
.	.	.	.	.	4e\	.	.	.
=53-	=53-	=53-	=53-	=53-	=53-	=53-	=53-	=53-
1BB-	.	.	.	0ryy	4d\	.	1B-	.
.	.	.	.	.	4c\	.	.	.
.	.	.	.	.	2d\	.	.	.
!	!	!	!	!	!	!	!LO:TX:t=P:problem=na ostatnim systemie strony fragment partii przynależący do następnego cyklu odpowiedzi mszalnych	!
!LO:N:vis=00	!	!	!	!	!LO:N:vis=00	!	!LO:N:vis=00	!
1FF	.	.	.	.	1c\	.	1A/	.
=||	=||	=||	=||	=||	=||	=||	=||	=||
*-	*-	*-	*-	*-	*-	*-	*-	*-
!!!system-decoration: [(s1,s2,s3,s4,s5)]
!!!ENC: Mateusz Solarz
!!!END: 2022-03-23
!!!ENC: Urszula Świątek
!!!END: 2022-03-26
